!!!SOCIAL_FUNCTION:	song with kwekwasa dance
!!!PDT:	1939
!!!OTL: No_31_Song_of_the_Kwekwasa_Dance_(b).krn
!!!LANG: Non-Tone
!!!LING_GROUP: Wakashan
!!!REG: Pacific Northwest
**kern
*staff1
=1-
*clefF4
*k[f#c#g#d#a#]
*M6/8
8d#\L
8d#\
8d#\J
8d#\L
16B\Jk
16r
8d#\
=2
8d#^\L
8B\
8d#^\J
8d#\L
8d#^\
8B\J
=3
8d#\L
8B\
8B\J
8B\
8r
8B\
=4
8B\L
8B\
8B\J
8B\L
8G#\J
8r
=5
8B\L
8B\
8B\J
8B\L
8G#\
8B\J
=6
8B^\L
8G#\
8B^\J
8B\L
(8B\
8G#\J)
=7
8D#\L
8D#\
8BB\J
8BB/
8r
8F#\
=8
8F#\L
8D#\
8F#\J
16G#\
16r
8D#/L
8C#/J
=9
8D#/L
8BB/
8BB/J
8BB/
8r
8C#/
=10
8D#/L
8BB/
8BB/J
4.BB/
=11
8D#/L
8BB/
8BB/J
8BB/
8r
8BB/
=12
8BB/L
8BB/
8BB/J
8BB/
8r
8BB/
=13
8BB/L
8BB/
8BB/J
8BB/
8r
8BB/
=14
8BB/L
8BB/
8BB/J
4BB/
8r
=15
8B\L
8B\
8B\J
8B\L
8G#\
8B\J
=16
8B\L
8G#\
8B\J
8B\L
8G#\J
8r
=17:|!
8BB/L
8BB/
8BB/J
4BB/
8r
==
*-
